static/dist/images/icons/ruler.svg

<svg xmlns="http://www.w3.org/2000/svg" viewBox="0 0 20 20"><path d="M14.249.438L.438 14.251a1.505 1.505 0 0 0 .002 2.124l3.185 3.187a1.506 1.506 0 0 0 2.124.002L19.562 5.751a1.508 1.508 0 0 0 0-2.125L16.376.438a1.51 1.51 0 0 0-2.127 0zM3.929 15.312l-.759.759-1.896-1.897.759-.759 1.896 1.897zm3.036 0l-.759.759-3.415-3.415.759-.76 3.415 3.416zm0-3.036l-.759.759-1.898-1.896.76-.76 1.897 1.897zm1.518-1.518l-.759.759-1.896-1.896.759-.76 1.896 1.897zm3.035 0l-.759.759-3.414-3.414.759-.759 3.414 3.414zm0-3.035l-.759.759-1.896-1.896.759-.759 1.896 1.896zm1.518-1.517l-.759.759-1.897-1.897.759-.759 1.897 1.897zm3.036 0l-.76.759-3.414-3.415.759-.76 3.415 3.416zm-.001-3.035l-.759.759-1.896-1.898.759-.758 1.896 1.897z"/></svg>

<?xml version="1.0" encoding="utf-8"?>
<!-- Generator: Adobe Illustrator 18.1.0, SVG Export Plug-In . SVG Version: 6.00 Build 0)  -->
<!DOCTYPE svg PUBLIC "-//W3C//DTD SVG 1.1//EN" "http://www.w3.org/Graphics/SVG/1.1/DTD/svg11.dtd">
<svg version="1.1" id="Ruler" xmlns="http://www.w3.org/2000/svg" xmlns:xlink="http://www.w3.org/1999/xlink" x="0px" y="0px"
	 viewBox="0 0 20 20" enable-background="new 0 0 20 20" xml:space="preserve">
<path d="M14.249,0.438L0.438,14.251c-0.584,0.584-0.584,1.538,0.002,2.124l3.185,3.187c0.584,0.584,1.541,0.586,2.124,0.002
	L19.562,5.751c0.584-0.585,0.584-1.541,0-2.125l-3.186-3.188C15.789-0.148,14.834-0.145,14.249,0.438z M3.929,15.312L3.17,16.071
	l-1.896-1.897l0.759-0.759L3.929,15.312z M6.965,15.312l-0.759,0.759l-3.415-3.415l0.759-0.76L6.965,15.312z M6.965,12.276
	l-0.759,0.759l-1.898-1.896l0.76-0.76L6.965,12.276z M8.483,10.758l-0.759,0.759L5.828,9.621l0.759-0.76L8.483,10.758z
	 M11.518,10.758l-0.759,0.759L7.345,8.103l0.759-0.759L11.518,10.758z M11.518,7.723l-0.759,0.759L8.863,6.586l0.759-0.759
	L11.518,7.723z M13.036,6.206l-0.759,0.759L10.38,5.068l0.759-0.759L13.036,6.206z M16.072,6.206l-0.76,0.759L11.898,3.55
	l0.759-0.76L16.072,6.206z M16.071,3.171l-0.759,0.759l-1.896-1.898l0.759-0.758L16.071,3.171z"/>
</svg>
